src/images/advantages/icon-advantages-2.svg

<svg width="61" height="63" viewBox="0 0 61 63" fill="none" xmlns="http://www.w3.org/2000/svg">
<g clip-path="url(#clip0)">
<path d="M48.6619 10.3361H28.4873C27.174 10.3361 26.1056 11.4044 26.1056 12.7177V21.0689L11.1177 27.3597C10.948 27.4308 10.8326 27.591 10.8196 27.7747C10.8066 27.9583 10.8974 28.1337 11.0554 28.2284L12.9668 29.3724V41.5633C11.9893 41.7861 11.2559 42.661 11.2559 43.7077V44.8828C11.2559 45.1522 11.4745 45.3709 11.744 45.3709H15.1667C15.4362 45.3709 15.6548 45.1522 15.6548 44.8828V43.7077C15.6548 42.6624 14.9212 41.7887 13.943 41.5645V29.9567L15.4543 30.8612C15.4078 31.2097 15.4484 30.2538 15.4327 36.5369C15.4327 38.6022 20.7229 39.7086 26.1056 39.772V49.2858C26.1056 49.7772 26.2561 50.2343 26.5134 50.6136C26.9414 51.2468 27.6659 51.664 28.486 51.664H48.6606C49.9727 51.664 51.0401 50.5963 51.0401 49.2845C51.0401 49.3497 51.0374 47.2693 51.0401 12.7181C51.0401 11.4225 49.9689 10.3361 48.6619 10.3361ZM14.6786 43.7077V44.3947H12.2321V43.7077C12.2321 43.0314 12.7796 42.4811 13.4523 42.4811C14.1285 42.4811 14.6786 43.0314 14.6786 43.7077ZM48.6619 50.6853H28.4873C28.0032 50.6853 27.5756 50.4402 27.3227 50.0683C27.1713 49.8443 27.0828 49.5745 27.0828 49.2845V45.9867H50.0614V49.2858C50.0614 50.0503 49.4243 50.6853 48.6619 50.6853ZM50.0614 45.0105H27.0818V39.7749C29.7099 39.7448 37.7611 39.1661 37.7611 36.5369C37.7582 32.5899 37.7681 30.9893 37.7487 30.8539L42.1317 28.2284C42.2897 28.1337 42.3805 27.9583 42.3675 27.7747C42.3545 27.591 42.2391 27.4308 42.0695 27.3597L27.0818 21.0688V16.9921H50.0614V45.0105ZM26.5937 33.2962C23.8863 33.2962 18.6735 33.6459 16.4089 35.1247C16.4232 30.6016 16.2519 30.8961 16.8089 30.5126C18.2157 29.4766 22.2393 28.7534 26.5937 28.7534C28.4929 28.7534 36.7849 29.2755 36.7849 31.0312V35.1253C34.4991 33.6328 29.3127 33.2962 26.5937 33.2962ZM27.0828 12.7181C27.0828 11.9443 27.7123 11.3148 28.486 11.3148H48.6606C49.4351 11.3148 50.0614 11.9531 50.0614 12.7177V16.0159H27.0828V12.7181ZM26.5937 21.9226L40.8028 27.8865L37.282 29.9934C35.4102 28.1372 29.2184 27.7772 26.5937 27.7772C23.9656 27.7772 17.7733 28.1383 15.9055 29.994L12.3837 27.8865L26.5937 21.9226ZM16.4089 36.5369C16.4089 35.7469 19.9069 34.2724 26.5937 34.2724C33.2847 34.2724 36.7849 35.7469 36.7849 36.5369C36.7849 37.3275 33.2847 38.8019 26.5937 38.8019C19.9069 38.8019 16.4089 37.3275 16.4089 36.5369Z" fill="#FF6B09"/>
<path d="M38.5733 46.7227C37.6832 46.7227 36.959 47.4465 36.959 48.3369C36.959 49.2273 37.6832 49.9518 38.5733 49.9518C39.4637 49.9518 40.1879 49.2273 40.1879 48.3369C40.1879 47.4465 39.4637 46.7227 38.5733 46.7227ZM38.5733 48.9756C38.2215 48.9756 37.9352 48.689 37.9352 48.3369C37.9352 47.9848 38.2215 47.6988 38.5733 47.6988C38.9253 47.6988 39.2117 47.9848 39.2117 48.3369C39.2117 48.689 38.9253 48.9756 38.5733 48.9756Z" fill="#FF6B09"/>
<path d="M40.4351 13.1772H36.7114V14.1534H40.4351V13.1772Z" fill="#FF6B09"/>
</g>
<path d="M59.8235 9.73529V1.5H1V61.5H59.8235V53.2647" stroke="#FF6B09" stroke-width="2"/>
<defs>
<clipPath id="clip0">
<rect width="41.8723" height="41" fill="white" transform="translate(10 10.5)"/>
</clipPath>
</defs>
</svg>

<svg width="61" height="63" fill="none" xmlns="http://www.w3.org/2000/svg"><g clip-path="url(#clip0)" fill="#FF6B09"><path d="M48.662 10.336H28.487a2.384 2.384 0 00-2.381 2.382v8.35L11.118 27.36a.487.487 0 00-.063.868l1.912 1.144v12.191a2.202 2.202 0 00-1.711 2.145v1.175c0 .27.219.488.488.488h3.423c.27 0 .488-.219.488-.488v-1.175a2.204 2.204 0 00-1.712-2.143V29.957l1.511.904c-.046.349-.006-.607-.021 5.676 0 2.065 5.29 3.172 10.673 3.235v9.514a2.379 2.379 0 002.38 2.378h20.175a2.382 2.382 0 002.38-2.38c0 .066-.004-2.015 0-36.566 0-1.296-1.072-2.382-2.38-2.382zM14.679 43.708v.687h-2.447v-.687c0-.677.548-1.227 1.22-1.227.677 0 1.227.55 1.227 1.227zm33.983 6.977H28.487c-.484 0-.911-.245-1.164-.617a1.395 1.395 0 01-.24-.783v-3.298H50.06v3.299c0 .764-.637 1.4-1.4 1.4zm1.4-5.675h-22.98v-5.235c2.628-.03 10.68-.609 10.68-3.238-.004-3.947.006-5.548-.013-5.683l4.383-2.626a.488.488 0 00-.063-.868l-14.987-6.291v-4.077h22.98V45.01zM26.593 33.297c-2.708 0-7.92.35-10.185 1.829.014-4.523-.157-4.229.4-4.612 1.407-1.036 5.43-1.76 9.785-1.76 1.899 0 10.19.523 10.19 2.278v4.094c-2.285-1.492-7.471-1.829-10.19-1.829zm.489-20.578c0-.774.63-1.403 1.403-1.403h20.175c.774 0 1.4.638 1.4 1.403v3.298H27.083v-3.298zm-.49 9.205l14.21 5.964-3.521 2.106c-1.872-1.856-8.064-2.216-10.688-2.216-2.628 0-8.82.361-10.689 2.217l-3.521-2.107 14.21-5.964zM16.41 36.537c0-.79 3.498-2.265 10.185-2.265 6.69 0 10.19 1.475 10.19 2.265s-3.5 2.265-10.19 2.265c-6.687 0-10.185-1.474-10.185-2.265z"/><path d="M38.573 46.723c-.89 0-1.614.724-1.614 1.614 0 .89.724 1.615 1.614 1.615.89 0 1.615-.725 1.615-1.615s-.724-1.614-1.615-1.614zm0 2.253a.64.64 0 11.003-1.279.64.64 0 01-.003 1.279zM40.435 13.177h-3.724v.976h3.724v-.976z"/></g><path d="M59.824 9.735V1.5H1v60h58.824v-8.235" stroke="#FF6B09" stroke-width="2"/><defs><clipPath id="clip0"><path fill="#fff" transform="translate(10 10.5)" d="M0 0h41.872v41H0z"/></clipPath></defs></svg>
